X:1
T: Jig Kerr's First #1
C:
R:Jig
Q:180
K:A
M:6/8
L:1/16
|:A4c2 e4f2|e4f2 e2c2A2|A4c2 e4f2|e2c2A2 B6|
A4c2 e4f2|e4f2 e2c2A2|a4a2 b4a2|g2f2g2 a6|
e2f2e2 c2A2c2|d2e2f2 e2c2A2|G2A2B2 d4f2|e2c2A2 B2c2d2|
e2f2e2 d2A2c2|d2e2f2 e2c2A2|G2A2B2 d2f2e2|d2c2B2 A6:|
